X:8
T: Napom, napom
L:1/4
K:C
A<c B<E | A<c B<A |
e>_e c<=e | e (e/_e/) (c/B/) A |
A (A/B/) c (c/d/) | e<B B B |
e>d ^c<e | ^f d d A |
A>^G F A | d A F A |
E<E E>G | ^F<E E z |

